X:1
T:Joshua, LM
T:Joshua, LM
T:Peter Christian Lutkin, 1905
T:Public Domain Courtesy of the Cyber Hymnal™
C:Peter Christian Lutkin, 1905
Z:Public Domain
Z:Courtesy of the Cyber Hymnal™
%%score ( 1 2 ) ( 3 4 )
L:1/8
Q:1/4=110
M:4/4
K:F
V:1 treble 
V:2 treble 
V:3 bass 
V:4 bass 
V:1
 [FA]2 | [EA]3 E E2 E2 | [DG]2 D2 [DF]4 | D2 (EF) [DG]2 [=B,D]2 | [CE]2 (FG) [EA]4 | %5
 [FA]2 [EG][DF] [GB]2 [FB]2 | [EB]2 (AG) [Fc]2 [E^c]2 | [Dd]2 [DA]2 [DB]2 (AG) | c6 [CE]2 | %9
 [CF]6 |] %10
V:2
 x2 | x3 E E2 E2 | x2 D2 x4 | D2 D2 x4 | x2 C2 x4 | x8 | x2 E2 x4 | x6 D2 | (G2 F2 D2) x2 | x6 |] %10
V:3
 [D,D]2 | [A,,C]3 [A,C] [A,C]2 [A,C]2 | [G,B,]2 [G,B,]2 [D,A,]4 | %3
 [D,F,]2 [C,A,]2 [=B,,G,]2 [F,G,]2 | [E,G,]2 [D,B,]2 [^C,A,]4 | [D,A,]2 [D,D]2 [G,D]2 [G,D]2 | %6
 [C,C]2 [B,C]2 [A,C]2 [G,A,]2 | [^F,A,]2 [F,C]2 [G,B,]2 (CB,) | [C,-A,C]4 [C,G,B,]4 | [F,,F,A,]6 |] %10
V:4
 x2 | x8 | x8 | x8 | x8 | x8 | x8 | x6 G,2 | x8 | x6 |] %10

